packages/kaspersky-hexa-ui-icons/src/iconsSVGs/16/Group.svg

<svg width="16" height="16" viewBox="0 0 16 16" fill="none" xmlns="http://www.w3.org/2000/svg">
<path fill-rule="evenodd" clip-rule="evenodd" d="M3 1C2.44772 1 2 1.44772 2 2V4C2 4.55228 2.44772 5 3 5H5C5.55228 5 6 4.55228 6 4V3.65H8.35179C8.54509 3.65 8.70179 3.8067 8.70179 4V7.35H6V7C6 6.44772 5.55228 6 5 6H3C2.44772 6 2 6.44772 2 7V9C2 9.55228 2.44772 10 3 10H5C5.55228 10 6 9.55228 6 9V8.65H8.70179V12C8.70179 12.1933 8.54509 12.35 8.35179 12.35H6V12C6 11.4477 5.55228 11 5 11H3C2.44772 11 2 11.4477 2 12V14C2 14.5523 2.44772 15 3 15H5C5.55228 15 6 14.5523 6 14V13.65H8.35179C9.26306 13.65 10.0018 12.9113 10.0018 12V8.65H12.4308L12.0404 9.04038C11.7865 9.29422 11.7865 9.70578 12.0404 9.95962C12.2942 10.2135 12.7058 10.2135 12.9596 9.95962L14.4596 8.45962C14.7135 8.20578 14.7135 7.79422 14.4596 7.54038L12.9596 6.04038C12.7058 5.78654 12.2942 5.78654 12.0404 6.04038C11.7865 6.29422 11.7865 6.70578 12.0404 6.95962L12.4308 7.35H10.0018V4C10.0018 3.08873 9.26306 2.35 8.35179 2.35H6V2C6 1.44772 5.55228 1 5 1H3ZM3.3 2.3V3.7H4.7V2.3H3.3ZM3.3 7.3V8.7H4.7V7.3H3.3ZM3.3 13.7V12.3H4.7V13.7H3.3Z" fill="black"/>
</svg>

<svg xmlns="http://www.w3.org/2000/svg" width="16" height="16" fill="none" viewBox="0 0 16 16"><path fill="#000" fill-rule="evenodd" d="M3 1c-.5523 0-1 .4477-1 1v2c0 .5523.4477 1 1 1h2c.5523 0 1-.4477 1-1v-.35h2.3518a.35.35 0 0 1 .35.35v3.35H6V7c0-.5523-.4477-1-1-1H3c-.5523 0-1 .4477-1 1v2c0 .5523.4477 1 1 1h2c.5523 0 1-.4477 1-1v-.35h2.7018V12a.35.35 0 0 1-.35.35H6V12c0-.5523-.4477-1-1-1H3c-.5523 0-1 .4477-1 1v2c0 .5523.4477 1 1 1h2c.5523 0 1-.4477 1-1v-.35h2.3518c.9113 0 1.65-.7387 1.65-1.65V8.65h2.429l-.3904.3904a.65.65 0 0 0 0 .9192.65.65 0 0 0 .9192 0l1.5-1.5a.65.65 0 0 0 0-.9192l-1.5-1.5a.65.65 0 1 0-.9192.9192l.3904.3904h-2.429V4c0-.9113-.7387-1.65-1.65-1.65H6V2c0-.5523-.4477-1-1-1zm.3 1.3v1.4h1.4V2.3zm0 5v1.4h1.4V7.3zm0 6.4v-1.4h1.4v1.4z"/></svg>
